X: 18743
T: Ievan Polkka
R: polka
M: 2/4
K: Aminor
|:E|A>A AB|cA Ac|BG GB|c/B/A/G/ AE|
A>A AB|cA Ac|de/d/ cB|1 A2 A:|2 A2 A2||
|:ec ce|dB Bc|de/d/ cB|AB cd|
ec ce|dB Bc|de/d/ cB|1 A2 A2:|2 A2 A||

